!!!OTL: Sandmaennchen.
!!!OTL-incipit: DIE BLUEMELEIN SIE SCHLAFEN
!!!ARE: Europa, Mitteleuropa, Deutschland,Niederrhein
!!!SCT: Z1355
!!!TXL: @@DE
!!!YEM: Copyright 1995, estate of Helmut Schaffrath.
**kern	**text
*ICvox	*
*M4/4	*
*met(c)	*
*k[f#]	*
*G:	*
!LO:TX:a:t=Vom Niederrhein.	!
{4d	Die
=1	=1
4.g	Blü-
8a	-me-
4b/	-lein
4a	ſie
=2	=2
2g	ſchla-
4f#	-fen
4g	ſchon
=3	=3
8aL	längſt
8bJ	.
4cc	im
8bL	Monden-
8aJ	.
4g	.
=4	=4
2a	-ſchein,
4r}	.
{4d	ſie
=5	=5
4.g	nik-
8a	-ken
4b/	mit
4a	den
=6	=6
4aqq	.
2g	Kö-
4f#	-pfen
4g	auf
=7	=7
8aL	ih-
8bJ	.
4cc	-ren
8bL	Stenge-
8aJ	.
4g	.
=8	=8
2a	-lein.
4r}	.
{8bL	Es
8ccJ	.
=9	=9
4dd	rüt-
4b	-telt
4cc	ſich
4dd	der
=10	=10
4.ee	Blü-
8dd	-then-
4cc	-baum,
8aL	er
8bJ	.
=11	=11
4cc	ſäu-
4cc	-ſelt
4b	wie
4dd	im
=12	=12
2.a	Traum
4r}	.
=13	=13
{(4.dd	ſchla-
8b)	.
2a	-fe,
=14	=14
(4.b/	ſchla-
8a)	.
8gL	-fe,
8aJ	.
(8bL	ſchlaf
8ccJ)	.
=15	=15
4dd	du,
8gL	mein
8aJ	.
4b/	Kin-
4a	-de-
=16	=16
2g	-lein!
4r}	.
{8bL	Es
8ccJ	.
=17	=17
4dd	rüt-
4b	-telt
4cc	ſich
4dd	der
=18	=18
4.ee	Blü-
8dd	-then-
4cc	-baum,
8aL	er
8bJ	.
=19	=19
4cc	ſäu-
4cc	-ſelt
4b	wie
4dd	im
=20	=20
2.a	Traum
4r}	.
=21	=21
{(4.dd	ſchla-
8b)	.
2a	-fe,
=22	=22
(4.b/	ſchla-
8a)	.
8gL	-fe,
8aJ	.
(8bL	ſchlaf
8ccJ)	.
=23	=23
4dd	du,
8gL	mein
8aJ	.
4b/	Kin-
4a	-de-
=24	=24
2g	-lein!
4r}	.
==	==
!!!AGN: Kinder - Lied
!!!ONB: ESAC (Essen Associative Code) Database: ZUCCAL
!!!AMT: simple quadruple
!!!AIN: vox
!!!EED: Helmut Schaffrath
!!!EEV: 1.0
!!!GTL: IX. Kinder- Lieder.
!!!URL-scan: https://www.digitale-sammlungen.de/de/view/bsb11160573?page=653
!!!ENC: Anna Maria Matuszewska
!!!EEV: 2025/02/07
*-	*-
